Numix-Light-GalliumOS/24/status/skype-status-offline.svg

<?xml version="1.0" encoding="UTF-8" standalone="no"?>
<!-- Created with Inkscape (http://www.inkscape.org/) -->

<svg
   xmlns:dc="http://purl.org/dc/elements/1.1/"
   xmlns:cc="http://creativecommons.org/ns#"
   xmlns:rdf="http://www.w3.org/1999/02/22-rdf-syntax-ns#"
   xmlns:svg="http://www.w3.org/2000/svg"
   xmlns="http://www.w3.org/2000/svg"
   xmlns:sodipodi="http://sodipodi.sourceforge.net/DTD/sodipodi-0.dtd"
   xmlns:inkscape="http://www.inkscape.org/namespaces/inkscape"
   version="1.1"
   width="24"
   height="24"
   id="svg2"
   xml:space="preserve"
   inkscape:version="0.91 r"
   sodipodi:docname="skype-status-offline.svg"><metadata
     id="metadata37"><rdf:RDF><cc:Work
         rdf:about=""><dc:format>image/svg+xml</dc:format><dc:type
           rdf:resource="http://purl.org/dc/dcmitype/StillImage" /><dc:title></dc:title></cc:Work></rdf:RDF></metadata><sodipodi:namedview
     pagecolor="#ffffff"
     bordercolor="#666666"
     borderopacity="1"
     objecttolerance="10"
     gridtolerance="10"
     guidetolerance="10"
     inkscape:pageopacity="0"
     inkscape:pageshadow="2"
     inkscape:window-width="1920"
     inkscape:window-height="1056"
     id="namedview35"
     showgrid="true"
     inkscape:zoom="30.501345"
     inkscape:cx="-0.57001469"
     inkscape:cy="8.1123701"
     inkscape:window-x="0"
     inkscape:window-y="24"
     inkscape:window-maximized="1"
     inkscape:current-layer="svg2"><inkscape:grid
       type="xygrid"
       id="grid4146" /></sodipodi:namedview><defs
     id="defs6" /><path
     style="opacity:0.4;fill:#353535;fill-opacity:1;fill-rule:nonzero;stroke:none"
     d="M 8.4257812,3.875 C 5.9816293,3.875 4,5.8592532 4,8.3066406 4,9.124774 4.221404,9.891039 4.6074219,10.548828 4.5062069,11.045287 4.453125,11.55949 4.453125,12.085938 c 0,4.220576 3.4181544,7.640625 7.632813,7.640624 0.477361,0 0.943495,-0.04299 1.396484,-0.126953 C 14.105441,19.934943 14.81738,20.125 15.574219,20.125 18.018412,20.125 20,18.140992 20,15.693359 c 0,-0.707135 -0.166714,-1.375649 -0.460938,-1.96875 0.115387,-0.528373 0.177735,-1.075682 0.177735,-1.638671 0,-4.2204578 -3.416204,-7.6425786 -7.630859,-7.6425786 -0.444962,0 -0.882529,0.038109 -1.306641,0.1113281 C 10.097253,4.1244749 9.2913725,3.875 8.4257812,3.875 Z M 9.8789062,8.4648438 12,10.585938 14.121094,8.4648438 15.535156,9.878906 13.414062,12 15.535156,14.121094 14.121094,15.535156 12,13.414062 9.8789062,15.535156 8.4648438,14.121094 10.585938,12 8.4648438,9.878906 9.8789062,8.4648438 Z"
     id="path22"
     inkscape:connector-curvature="0" /><g
     id="g48"
     transform="matrix(1.25,0,0,-1.25,-129.20625,300.11625)" /></svg>

<svg xmlns="http://www.w3.org/2000/svg" viewBox="0 0 24 24">
 <path d="m 8.426 3.875 c -2.444 0 -4.426 1.984 -4.426 4.432 0 0.818 0.221 1.584 0.607 2.242 -0.101 0.496 -0.154 1.01 -0.154 1.537 c 0 4.221 3.418 7.641 7.633 7.641 0.477 0 0.943 -0.043 1.396 -0.127 c 0.623 0.335 1.335 0.525 2.092 0.525 2.444 0 4.426 -1.984 4.426 -4.432 c 0 -0.707 -0.167 -1.376 -0.461 -1.969 0.115 -0.528 0.178 -1.076 0.178 -1.639 0 -4.22 -3.416 -7.643 -7.631 -7.643 -0.445 0 -0.883 0.038 -1.307 0.111 c -0.682 -0.43 -1.488 -0.68 -2.354 -0.68 m 1.453 4.59 2.121 2.121 2.121 -2.121 1.414 1.414 -2.121 2.121 2.121 2.121 -1.414 1.414 -2.121 -2.121 -2.121 2.121 -1.414 -1.414 2.121 -2.121 -2.121 -2.121 1.414 -1.414" style="fill:#353535;opacity:0.4;fill-opacity:1;stroke:none;fill-rule:nonzero"/>
</svg>
